build/img/icons/telegram.svg

<svg width="48" height="48" viewBox="0 0 48 48" fill="none" xmlns="http://www.w3.org/2000/svg">
<path d="M24 48C37.2548 48 48 37.2548 48 24C48 10.7452 37.2548 0 24 0C10.7452 0 0 10.7452 0 24C0 37.2548 10.7452 48 24 48Z" fill="#039BE5"/>
<path d="M10.982 23.4799L34.122 14.5579C35.196 14.1699 36.134 14.8199 35.786 16.4439L35.788 16.4419L31.848 35.0039C31.556 36.3199 30.774 36.6399 29.68 36.0199L23.68 31.5979L20.786 34.3859C20.466 34.7059 20.196 34.9759 19.576 34.9759L20.002 28.8699L31.122 18.8239C31.606 18.3979 31.014 18.1579 30.376 18.5819L16.634 27.2339L10.71 25.3859C9.42398 24.9779 9.39598 24.0999 10.982 23.4799Z" fill="white"/>
</svg>

<svg width="48" height="48" fill="none" xmlns="http://www.w3.org/2000/svg"><path d="M24 48c13.255 0 24-10.745 24-24S37.255 0 24 0 0 10.745 0 24s10.745 24 24 24z" fill="#039BE5"/><path d="M10.982 23.48l23.14-8.922c1.074-.388 2.012.262 1.664 1.886l.002-.002-3.94 18.562c-.292 1.316-1.074 1.636-2.168 1.016l-6-4.422-2.894 2.788c-.32.32-.59.59-1.21.59l.426-6.106 11.12-10.046c.484-.426-.108-.666-.746-.242l-13.742 8.652-5.924-1.848c-1.286-.408-1.314-1.286.272-1.906z" fill="#fff"/></svg>
